X: 57
T:Go to Berweck Jockey. JMP.057
M:3/4
L:1/8
Q:90
C:"62...a Retreat"
S:John Miller MS. Perth, 1799.(for the fife)
R:Misc.
O:Scotland
A:Perth
N:1 - written more faintly over these two notes,   and possibly an
N:attempt has been made to erase them,  are a group of notes as in
N:previous bar
H:1799
Z:vmp.C.  Graebe
K:G major
A2 B/A/G/F/ B/A/G/F/ | A2 B/A/G/F/ "1"Ad | A2 B/A/G/F/ B/A/G/F/ |\
GEEF GB :|!
|: ADDA B/A/G/F/ | ADDA Fd | ADDA B/A/G/F/   |\
GEEF GB :||:! 
d>edA FA | d>edA df | df f/e/d/^c/ e/d/^c/d/ | BeeF GB :|]
